X:1
T:Title
%%score ( 1 2 ) { 3 | 4 }
L:1/8
Q:1/4=100
M:4/4
K:G
V:1 treble nm="Grand Piano, Staff"
V:2 treble 
V:3 bass nm="Choir Pad, Spires, LM"
V:4 bass 
V:1
 z2 .E2 .F2 z2 | [B,E][^DF] [EG]2 [DF]2 [B,E]2 | z2 A2 z4 | z2 A2 A2 z2 | z4 c2 .B2 | %5
 dc [DGB]2 [FA]GA-[FA] | [DG]2 [B,FB]2 [B,EG]2 [B,G]-[B,^DG] | [B,EG]2 [DF]2 EC [B,^D]2 | [B,E]8 |] %9
V:2
 EFG-[DG] C-[CE] [B,^D]2 | x8 | [EG]2 DE [FA]2 [DGB]2 | [B,EG]2 EG FE [^DB]2- | %4
 [DB]2 [EB]2 EF[=DG]-[DGc] | [DA]2 z2 z2 .G2 | z4 z2 .E2 | x8 | x8 |] %9
V:3
 G,A, B,2 A,G, F,2 | G,A,B,C F,B, G,2 | B,2 A,2 D2 G,F, | E,D,C,B,, A,2 F,2- | F,2 G,2 A,2 G,,2 | %5
 F,,2 G,,2 CB,CA, | B,2 ^D,2 E,E,, F,,2 | G,,A,,B,A, G,2 F,G,/A,/ | G,8 |] %9
V:4
 [E,,E,]2 E,2 A,,2 B,,A,, | G,,[F,,F,][E,,E,]A,, B,,2 E,,2 | E,2 F,2 D,2 z2 | z4 C,2 B,,2- | %4
 B,,2 E,2 A,,2 z2 | z4 D,2 D,2 | G,2 z2 z4 | z2 B,,2 C,A,, B,,2 | [E,,E,]8 |] %9

